svg/eyedropper_remove.svg

<svg xmlns="http://www.w3.org/2000/svg" viewBox="0 0 24 24"><path d="m19.35 11.72-2.13 2.13-1.41-1.42-7.71 7.71L3.5 22 2 20.5l1.86-4.6 7.71-7.71-1.42-1.41 2.13-2.13zM16.76 3c1.17-1.17 3.07-1.17 4.24 0s1.17 3.07 0 4.24l-1.92 1.92-4.24-4.24zM5.56 17.03 4.5 19.5l2.47-1.06L14.4 11 13 9.6zM8.54 2.88 6.41 5l2.13 2.12-1.42 1.42L5 6.41 2.88 8.54 1.46 7.12 3.59 5 1.46 2.88l1.42-1.41L5 3.59l2.12-2.12z"/></svg>

<?xml version="1.0" encoding="UTF-8"?><!DOCTYPE svg PUBLIC "-//W3C//DTD SVG 1.1//EN" "http://www.w3.org/Graphics/SVG/1.1/DTD/svg11.dtd"><svg xmlns="http://www.w3.org/2000/svg" xmlns:xlink="http://www.w3.org/1999/xlink" version="1.1" id="mdi-eyedropper-remove" width="24" height="24" viewBox="0 0 24 24"><path d="M19.35 11.72L17.22 13.85L15.81 12.43L8.1 20.14L3.5 22L2 20.5L3.86 15.9L11.57 8.19L10.15 6.78L12.28 4.65L19.35 11.72M16.76 3C17.93 1.83 19.83 1.83 21 3S22.17 6.07 21 7.24L19.08 9.16L14.84 4.92L16.76 3M5.56 17.03L4.5 19.5L6.97 18.44L14.4 11L13 9.6L5.56 17.03M8.54 2.88L6.41 5L8.54 7.12L7.12 8.54L5 6.41L2.88 8.54L1.46 7.12L3.59 5L1.46 2.88L2.88 1.47L5 3.59L7.12 1.47L8.54 2.88Z" /></svg>
